Yaru++/mimetypes/16/application-epub+zip.svg

<svg height="16" width="16" xmlns="http://www.w3.org/2000/svg">
  <path d="m7.9998279 12.71358-4.7135357-4.7139398 4.7135357-4.7132597 1.5713083 1.5710362-3.1426128 3.1422235 1.57121 1.5713013 4.7135356-4.7132225-4.1060408-4.1060409c-.3352819-.335622-.8791294-.335622-1.2147023 0l-6.64106449 6.6410456c-.33528188.3352441-.33528188.8791181 0 1.2147023l6.64115899 6.640857c.3355842.335623.8794166.335623 1.2147023 0l6.6411593-6.640857c.335282-.335622.335282-.8794204 0-1.2147023l-.964097-.9638173z" fill="#808080"/>
</svg>

<svg xmlns="http://www.w3.org/2000/svg" width="16" height="16" version="1.1">
 <path d="M 7.9998279,12.71358 3.2862922,7.9996402 7.9998279,3.2863805 9.5711362,4.8574167 6.4285234,7.9996402 7.9997334,9.5709415 12.713269,4.857719 8.6072282,0.7516781 c -0.3352819,-0.335622 -0.8791294,-0.335622 -1.2147023,0 L 0.75146141,7.3927237 c -0.33528188,0.3352441 -0.33528188,0.8791181 0,1.2147023 l 6.64115899,6.640857 c 0.3355842,0.335623 0.8794166,0.335623 1.2147023,0 L 15.248482,8.607426 c 0.335282,-0.335622 0.335282,-0.8794204 0,-1.2147023 L 14.284385,6.4289064 Z" style="fill:#808080"/>
</svg>
